X: 31
T: Song Concerning Iron Shirt
N: Derived from pawnee31.krn
O: Oklahoma, U.S.A.
N: from Pawnee Music by Frances Densmore, 1926
Z: transcribed to **kern format by David Huron, August 2000
C: Skidi and Chaui Bands, 1919
L: 1/4
M: 2/4
Q: 1/4=88
K: B clef=bass
%%linebreak <none>
DF [I:setbarnb 2]| 
D(D/ C/) | 
CC | 
DD[M:3/4] | 
C(C/ B,/)B, | 
G,(G,/ F,/)G,[M:2/4] | 
D,(D,/ B,,/) | 
B,,B,, | 
D,D,/ D,/ | 
B,,D, | 
B,,B,,/ B,,/- | 
B,,B,, | 
B,,2- | 
B,,2- | 
B,,D | 
C/> C/ (C/ B,/) | 
G,G,[M:3/4] | 
F,(G,/ D,/) (D,/ B,,/)[M:2/4] | 
B,,B,, | 
D,D,/ D,/ | 
B,(D,/ B,,/) | 
B,,B,,/ B,,/- | 
B,,B,, | 
B,,2- | 
B,,B,, :|]  



